X: 3
T: The Boys Of Ballisodare
R: slip jig
M: 9/8
L: 1/8
K: Gmaj
D2G G2A B2d|ege d2e g3|D2G G2B d2B|AGA B2G E2G|
D2G G2A B2d|ege d2e g2a|b2a g2e d2B|AGA B2G E2G:|
|:B2d d2B d2B|dBd e2f g3|B2d d2B d2B|AGA B2G E2G |
B2d d2B d2B|dBd e2f g2a|b2a g2e d2B|AGA B2G E2G:|]


Tune 1340	Setting 26011

